assets/imgs/Booking_1.svg

<svg width="25" height="25" viewBox="0 0 24 21" fill="none" xmlns="http://www.w3.org/2000/svg">
<path d="M19.7899 1.62219H17.9V1.5C17.9 1.12742 17.5979 0.825317 17.2253 0.825317C16.8528 0.825317 16.5507 1.12742 16.5507 1.5V1.62219H12.6525V1.5C12.6525 1.12742 12.3504 0.825317 11.9778 0.825317C11.6053 0.825317 11.3032 1.12742 11.3032 1.5V1.62219H7.40501V1.5C7.40501 1.12742 7.1029 0.825317 6.73033 0.825317C6.35775 0.825317 6.05565 1.12742 6.05565 1.5V1.62219H4.1643C2.31268 1.62219 0.806641 3.12822 0.806641 4.97984V17.5859C0.806641 19.4375 2.31268 20.9435 4.1643 20.9435H19.7899C21.6415 20.9435 23.1475 19.4375 23.1475 17.5859V4.97909C23.1468 3.12747 21.6415 1.62219 19.7899 1.62219ZM11.9771 16.4734C9.33459 16.4734 7.18386 14.3234 7.18386 11.6809C7.18386 9.03841 9.33384 6.88844 11.9771 6.88844C14.6203 6.88844 16.7703 9.03841 16.7703 11.6809C16.7703 14.3234 14.6196 16.4734 11.9771 16.4734Z" fill="#C891C3"/>
<path d="M11.9773 8.23779C10.0792 8.23779 8.53418 9.78281 8.53418 11.6809C8.53418 13.5798 10.0792 15.124 11.9773 15.124C13.8754 15.124 15.4204 13.579 15.4204 11.6809C15.4204 9.78206 13.8754 8.23779 11.9773 8.23779ZM13.8012 11.5047L11.7906 13.1247C11.6707 13.2222 11.5208 13.2739 11.3678 13.2739C11.3423 13.2739 11.3169 13.2724 11.2906 13.2694C11.1122 13.2492 10.948 13.1577 10.8371 13.016L10.0462 12.0085C9.81607 11.7154 9.8678 11.2911 10.1602 11.061C10.454 10.8301 10.8768 10.8818 11.1077 11.1749L11.4765 11.6449L12.9548 10.4545C13.2449 10.2199 13.6707 10.2671 13.9039 10.5564C14.137 10.8466 14.0913 11.2716 13.8012 11.5047Z" fill="#C891C3"/>
</svg>

<svg xmlns="http://www.w3.org/2000/svg" width="25" height="25" fill="none" viewBox="0 0 24 21"><path fill="#C891C3" d="M19.79 1.622H17.9V1.5a.675.675 0 0 0-1.35 0v.122h-3.898V1.5a.675.675 0 0 0-1.349 0v.122H7.405V1.5a.675.675 0 0 0-1.35 0v.122h-1.89A3.36 3.36 0 0 0 .806 4.98v12.606a3.36 3.36 0 0 0 3.357 3.358H19.79a3.36 3.36 0 0 0 3.358-3.358V4.979a3.36 3.36 0 0 0-3.358-3.357m-7.813 14.851a4.8 4.8 0 0 1-4.793-4.792 4.8 4.8 0 0 1 4.793-4.793 4.8 4.8 0 0 1 4.793 4.793 4.8 4.8 0 0 1-4.793 4.792"/><path fill="#C891C3" d="M11.977 8.238a3.45 3.45 0 0 0-3.443 3.443 3.447 3.447 0 0 0 3.443 3.443 3.45 3.45 0 0 0 3.443-3.443 3.447 3.447 0 0 0-3.443-3.443m1.824 3.267-2.01 1.62a.67.67 0 0 1-.5.144.67.67 0 0 1-.454-.253l-.79-1.008a.675.675 0 0 1 1.06-.833l.37.47 1.478-1.19a.675.675 0 0 1 .846 1.05"/></svg>
